X:24
T:Fantaisie
C:Bach: from Partita No. III in A minor.
N:TablEdited by James Stuart
L:1/8
Q:1/4=120
M:4/4
K:C
z8 | A,A B^G Ac DB | ED CB, CE A2 | z^G B2 zA GA | Bc df Bf ed | cB Af z2 ed | 
ge cd Bc ea | Bc AB dg AB | ^GA cf zd z=G | e2 c2 F2 dE | FD E^G c2 B2 | A2 ^GA BF ED | 
CE FD EA BE | FD EB cE FD | Ec BA ^GB E2 | A,e fd ec Be | fd eB Ae fd | eA ^GB Ec dB | 
ce A^G Ac ^FA | DB cA Bd G^F | GB EG CA BG | Ac ^FE FA ^DF | B,G A^F G2 B2 | e2 z2 ^d2 ^f2 | 
fe ^f^d eg Af | BA G^F GF Ec | zB Ad Bc de | ^fg ac' =fc' ba | gb ec ad Bg | cA ^FG EF Ad | 
E^F ^DE Gc DE | ^C^D ^FB EA B,=C | A,B, ^D^F AG FG | Bc AB e^f Bc | AB ^fg Bc AB | 
g^f e^d fB z2 | e^f gA G^F GA | BG A^F Ge zF | z2 Be ^de gc | eA ^fg ef ad | ^cd ^fB dG ef | 
^de gc Bc eA | c^F ^de ^cd ^fB | ga ^f2 g2 ze | ^f^d ec' be fd | eb a^f ef ze | 
zz B^c eg de | g_b ge fg e^c | _BA g2 f2 zA | Bd fc df ^gf | de fd B^G =Gf | ze z2 ab ^ga | 
c'd ^ga ^fg bc | af dB d^G z^F | E2 A,e fd ec | Be fd eB Ae | fd eA ^GB Ec | dB ce Af ge | 
fa dc df Bd | Ge fd eg cB | ce Ac Fd ec | df BA Bd ^GB | Ec dB ce A^G | Ac df A^G Ad | 
eg A^G Ae zf | z2 AB ^GA fe | AB ^GA ed BA | BA EF DE AB | EF DE Bc EF | DE cB A^G ^FE | 
DC A^G AD AG | AE ^GA Bc zA | B^G Ac zf z2 | de ^cd f2 b2 | zc dB ce aB | cA Bd gA B^G | 
Ac f2 d2 G2 | e2 c2 F2 dE | FD E^G c^D E^C | ^D^F AF DC B,A | ^GB df e2 zA | cB A^G AE FD | 
_B^G Ac EA =BG | A8 | z8 | z8 | z8 | z8 | z8 | z8 | 
 

